X: 1179
T: Repeal of the Union
M:C|
L:1/8
R:Reel
B:O'Neill's 1179
N:collected by Early
Z:transcribed by Trish O'Neil, oneil@cybernw.com
K:D
A2(3FED AD (3FED|(3GFE (cE) dEcE|AD (3FED ADFD|GEdE (3DDD D2|
A2(3FED AD (3FED)|GEcE dEcE|AD (3FED A2(3FED|GEcE D2D2||
Adde fdec|ABcA dBcA|Adde fdec|GEdE (3DDD D2|
Adde fdec|ABcA dBcA|(3agf (3gfe (3fed (3cBA|GEcE D2D2||


